build/logo/PostgreSQLOutline.svg

<svg xmlns="http://www.w3.org/2000/svg" fill="none" viewBox="0 0 24 24" focusable="false"><path d="M0 0H24V24H0z"/><path fill="#74767B" fill-rule="evenodd" d="M6.42839 2.92285L11.715 2.92285C15.9972 2.92285 19.4455 6.43774 19.3636 10.7192L19.2785 15.1674C19.2643 15.9098 19.8622 16.5192 20.6047 16.5192C21.182 16.5192 21.65 16.9872 21.65 17.5645L21.65 20.0105C21.65 20.8847 20.9413 21.5934 20.0671 21.5934C17.333 21.5934 15.0812 19.5287 14.7856 16.8735L12.8976 16.8735L12.8976 18.0556C12.8976 18.9669 12.1588 19.7056 11.2476 19.7056L8.36725 19.7056C5.24686 19.7056 2.71729 17.176 2.71729 14.0556L2.71729 3.67891C2.71729 3.26469 3.05308 2.92891 3.46729 2.92891L6.42839 2.92894L6.42839 2.92285ZM7.72839 11.2235L7.72839 4.22895L9.43488 4.22896C9.46524 4.22896 9.49512 4.22688 9.52438 4.22285L11.715 4.22285C15.2695 4.22285 18.1318 7.14043 18.0638 10.6943L17.9787 15.1426C17.9522 16.5266 19.0002 17.6773 20.35 17.8071L20.35 20.0105C20.35 20.1667 20.2233 20.2934 20.0671 20.2934C18.052 20.2934 16.3837 18.8087 16.0965 16.8735L16.1083 16.8735C16.4673 16.8735 16.7583 16.5825 16.7583 16.2235C16.7583 15.8645 16.4673 15.5735 16.1083 15.5735L12.0784 15.5735C9.67595 15.5735 7.72839 13.6259 7.72839 11.2235ZM6.42839 11.2235C6.42839 14.1819 8.70222 16.6093 11.5976 16.8533L11.5976 18.0556C11.5976 18.2489 11.4409 18.4056 11.2476 18.4056L8.36726 18.4056C5.96483 18.4056 4.01729 16.458 4.01729 14.0556L4.01728 4.22892L6.42839 4.22894L6.42839 11.2235ZM15.5392 13C16.0915 13 16.5392 12.5523 16.5392 12C16.5392 11.4477 16.0915 11 15.5392 11C14.9869 11 14.5392 11.4477 14.5392 12C14.5392 12.5523 14.9869 13 15.5392 13Z"/></svg>

<svg xmlns="http://www.w3.org/2000/svg" fill="none" viewBox="0 0 24 24" focusable="false"><path fill="#74767B" fill-rule="evenodd" d="M6.42 2.92h5.29c4.28 0 7.73 3.51 7.65 7.79l-.09 4.45c-.01.74.59 1.35 1.33 1.35.58 0 1.04.47 1.04 1.05v2.45c0 .87-.7 1.58-1.58 1.58-2.73 0-4.98-2.07-5.28-4.72h-1.89v1.18c0 .91-.74 1.65-1.65 1.65H8.36a5.65 5.65 0 0 1-5.65-5.65V3.67c0-.41.34-.75.75-.75zm1.3 8.3v-7h3.99c3.55 0 6.42 2.92 6.35 6.47l-.09 4.45a2.64 2.64 0 0 0 2.38 2.66v2.21c0 .15-.13.28-.29.28-2.01 0-3.68-1.49-3.97-3.42h.01c.36 0 .65-.29.65-.65s-.29-.65-.65-.65h-4.03c-2.4 0-4.35-1.95-4.35-4.35m-1.3 0c0 2.96 2.28 5.38 5.17 5.63v1.2c0 .19-.15.35-.35.35H8.36c-2.4 0-4.35-1.95-4.35-4.35V4.22h2.41zM15.53 13c.56 0 1-.45 1-1 0-.56-.44-1-1-1-.55 0-1 .44-1 1 0 .55.45 1 1 1"/></svg>
